evrofasad/img/icons/sheeld.svg

<svg width="50" height="58" viewBox="0 0 50 58" fill="none" xmlns="http://www.w3.org/2000/svg">
<path d="M49.3323 11.1338C49.1095 10.8834 48.8366 10.6809 48.5307 10.539C48.2247 10.3972 47.8924 10.319 47.5543 10.3094C42.3027 10.1742 35.6575 4.64653 31.264 2.47734C28.5501 1.14159 26.7583 0.260846 25.4128 0.0288356C25.1396 -0.0103526 24.862 -0.00959359 24.589 0.0310882C23.2435 0.263099 21.4518 1.14384 18.7402 2.47959C14.3467 4.64653 7.70147 10.1742 2.44985 10.3094C2.11157 10.3195 1.77901 10.3979 1.47277 10.5397C1.16653 10.6815 0.893149 10.8837 0.669563 11.1338C0.206122 11.65 -0.0329896 12.3245 0.00367032 13.0124C1.1318 35.5896 9.3582 49.562 23.7927 57.6824C24.168 57.8919 24.5845 58 24.9986 58C25.4128 58 25.8293 57.8919 26.2069 57.6824C40.6414 49.562 48.8655 35.5896 49.9959 13.0124C50.0347 12.3246 49.7962 11.6496 49.3323 11.1338ZM37.8543 20.0133L25.6737 37.7069C25.2366 38.3422 24.5501 38.7634 23.8705 38.7634C23.1886 38.7634 22.4312 38.3962 21.9529 37.9254L13.3673 29.4717C13.087 29.1947 12.9296 28.8197 12.9296 28.4288C12.9296 28.0378 13.087 27.6628 13.3673 27.3858L15.4885 25.2932C15.7705 25.0184 16.1512 24.8642 16.548 24.8642C16.9448 24.8642 17.3255 25.0184 17.6075 25.2932L23.1909 30.7894L32.891 16.6953C33.1154 16.3728 33.4603 16.1508 33.8505 16.0778C34.2406 16.0048 34.6443 16.0867 34.9733 16.3056L37.4561 17.9635C37.7841 18.1841 38.0101 18.5235 38.0847 18.9076C38.1593 19.2916 38.0765 19.6892 37.8543 20.0133Z" fill="white"/>
</svg>

<svg width="50" height="58" fill="none" xmlns="http://www.w3.org/2000/svg"><path d="M49.332 11.134a2.456 2.456 0 00-.801-.595 2.49 2.49 0 00-.977-.23c-5.251-.135-11.897-5.662-16.29-7.832C28.55 1.142 26.758.261 25.413.03a2.847 2.847 0 00-.824.002c-1.345.232-3.137 1.113-5.849 2.449-4.393 2.167-11.039 7.694-16.29 7.83a2.498 2.498 0 00-1.78.824 2.604 2.604 0 00-.666 1.878c1.128 22.578 9.354 36.55 23.789 44.67.375.21.791.318 1.206.318.414 0 .83-.108 1.208-.318 14.434-8.12 22.658-22.092 23.789-44.67a2.59 2.59 0 00-.664-1.878zm-11.478 8.88l-12.18 17.693c-.437.635-1.124 1.056-1.803 1.056-.682 0-1.44-.367-1.918-.838l-8.586-8.453a1.466 1.466 0 01-.437-1.043c0-.391.157-.766.437-1.043l2.121-2.093a1.518 1.518 0 011.06-.429c.397 0 .778.154 1.06.43l5.583 5.495 9.7-14.094a1.523 1.523 0 012.082-.39l2.483 1.659a1.461 1.461 0 01.398 2.05z" fill="#fff"/></svg>
